assets/icons/bowtie/uE60C-build-queue-new.svg

<svg xmlns="http://www.w3.org/2000/svg" viewBox="0 0 448 448"><path d="M224 64v96h-96v96h-96v192h192v-96h96v-96h96v-192h-192zm-32 352h-128v-128h128v128zm96-96h-64v-64h-64v-64h128v128zm96-96h-64v-64h-64v-64h128v128zm-224-128h-64v64h-32v-64h-64v-32h64v-64h32v64h64v32z"/></svg>

<svg xmlns="http://www.w3.org/2000/svg" viewBox="0 0 448 448"><path d="M224 64v96h-96v96H32v192h192v-96h96v-96h96V64H224zm-32 352H64V288h128v128zm96-96h-64v-64h-64v-64h128v128zm96-96h-64v-64h-64V96h128v128zM160 96H96v64H64V96H0V64h64V0h32v64h64v32z"/></svg>
